Improvs/dist/images/date_template/arrow_left.svg

<svg width="89" height="18" viewBox="0 0 89 18" fill="none" xmlns="http://www.w3.org/2000/svg">
<g id="Vector" opacity="0.8">
<path d="M88.3059 2.61796C82.7138 9.1267 73.3184 13.2661 62.8834 15.1405C47.2918 17.9393 29.3885 15.6914 18.5203 8.90373C18.2981 8.76111 18.2302 8.46482 18.3685 8.24399C18.5097 8.01742 18.8016 7.95086 19.0282 8.09212C29.7286 14.7732 47.3617 16.9559 62.7152 14.1959C72.914 12.3659 82.1145 8.35772 87.5781 1.99272C87.7508 1.79004 88.0519 1.7687 88.2546 1.94142C88.4515 2.11112 88.4786 2.41528 88.3059 2.61796ZM7.1845 6.61724L7.18465 6.61732C12.4233 9.40718 17.2937 12.0009 21.4331 17.0676C21.5987 17.2759 21.5721 17.5775 21.3638 17.7431C21.1613 17.9117 20.8584 17.8807 20.6941 17.6768C16.6251 12.6979 11.8307 10.1565 6.68058 7.42656C4.86345 6.46333 3.00204 5.47663 1.11259 4.35111C0.722369 4.11638 0.817789 3.78862 0.846978 3.71224C0.88857 3.59835 0.990775 3.43198 1.25001 3.3996C1.30099 3.39341 1.40268 3.39555 1.54455 3.41884C1.67494 3.44326 1.86824 3.49056 2.0614 3.53783L2.06152 3.53785C2.2692 3.58868 2.47671 3.63946 2.60569 3.66171C2.96528 3.72074 3.32461 3.77504 3.68394 3.82934L3.68429 3.82939C4.04381 3.88372 4.40334 3.93805 4.76312 3.99712C6.82027 4.33481 8.87499 4.64924 10.9503 4.813L11.1545 4.82945C18.8246 5.44736 25.1117 5.95385 31.3187 0.919671C31.5256 0.749664 31.8242 0.782046 31.9942 0.988952C32.1585 1.19283 32.1274 1.49578 31.9235 1.66004C25.4473 6.91595 18.9006 6.41362 10.8723 5.77007C8.77099 5.59996 6.68723 5.28495 4.6098 4.94393C4.36228 4.90123 4.11608 4.86288 3.86992 4.82455L3.86982 4.82453L3.86973 4.82451L3.86562 4.82387C4.98566 5.44624 6.09301 6.03596 7.18436 6.61716L7.1845 6.61724Z" fill="white"/>
<path d="M88.3059 2.61796C82.7138 9.1267 73.3184 13.2661 62.8834 15.1405C47.2918 17.9393 29.3885 15.6914 18.5203 8.90373C18.2981 8.76111 18.2302 8.46482 18.3685 8.24399C18.5097 8.01742 18.8016 7.95086 19.0282 8.09212C29.7286 14.7732 47.3617 16.9559 62.7152 14.1959C72.914 12.3659 82.1145 8.35772 87.5781 1.99272C87.7508 1.79004 88.0519 1.7687 88.2546 1.94142C88.4515 2.11112 88.4786 2.41528 88.3059 2.61796ZM7.1845 6.61724L7.18465 6.61732C12.4233 9.40718 17.2937 12.0009 21.4331 17.0676C21.5987 17.2759 21.5721 17.5775 21.3638 17.7431C21.1613 17.9117 20.8584 17.8807 20.6941 17.6768C16.6251 12.6979 11.8307 10.1565 6.68058 7.42656C4.86345 6.46333 3.00204 5.47663 1.11259 4.35111C0.722369 4.11638 0.817789 3.78862 0.846978 3.71224C0.88857 3.59835 0.990775 3.43198 1.25001 3.3996C1.30099 3.39341 1.40268 3.39555 1.54455 3.41884C1.67494 3.44326 1.86824 3.49056 2.0614 3.53783L2.06152 3.53785C2.2692 3.58868 2.47671 3.63946 2.60569 3.66171C2.96528 3.72074 3.32461 3.77504 3.68394 3.82934L3.68429 3.82939C4.04381 3.88372 4.40334 3.93805 4.76312 3.99712C6.82027 4.33481 8.87499 4.64924 10.9503 4.813L11.1545 4.82945C18.8246 5.44736 25.1117 5.95385 31.3187 0.919671C31.5256 0.749664 31.8242 0.782046 31.9942 0.988952C32.1585 1.19283 32.1274 1.49578 31.9235 1.66004C25.4473 6.91595 18.9006 6.41362 10.8723 5.77007C8.77099 5.59996 6.68723 5.28495 4.6098 4.94393C4.36228 4.90123 4.11608 4.86288 3.86992 4.82455L3.86982 4.82453L3.86973 4.82451L3.86562 4.82387C4.98566 5.44624 6.09301 6.03596 7.18436 6.61716L7.1845 6.61724Z" stroke="white"/>
</g>
</svg>

<svg width="89" height="18" fill="none" xmlns="http://www.w3.org/2000/svg"><g id="Vector" opacity=".8"><path d="M88.306 2.618C82.714 9.127 73.318 13.266 62.883 15.14c-15.591 2.8-33.495.551-44.363-6.236a.483.483 0 01-.151-.66.475.475 0 01.66-.152c10.7 6.681 28.333 8.864 43.686 6.104 10.199-1.83 19.4-5.838 24.863-12.203a.478.478 0 01.677-.052c.197.17.224.474.05.677zm-81.121 4c5.238 2.79 10.109 5.383 14.248 10.45a.479.479 0 01-.739.609c-4.069-4.98-8.863-7.52-14.013-10.25-1.818-.964-3.679-1.95-5.568-3.076-.39-.235-.295-.562-.266-.639A.464.464 0 011.25 3.4c.051-.007.153-.004.295.019.13.024.323.072.516.119.208.05.416.101.545.124.36.059.719.113 1.078.167.36.055.72.109 1.08.168 2.056.338 4.111.652 6.186.816l.205.016c7.67.618 13.957 1.125 20.164-3.91a.477.477 0 11.605.741C25.447 6.916 18.9 6.414 10.872 5.77c-2.101-.17-4.185-.485-6.262-.826a45.692 45.692 0 00-.74-.12h-.004c1.12.622 2.227 1.212 3.318 1.793z" fill="#fff"/><path d="M88.306 2.618C82.714 9.127 73.318 13.266 62.883 15.14c-15.591 2.8-33.495.551-44.363-6.236a.483.483 0 01-.151-.66.475.475 0 01.66-.152c10.7 6.681 28.333 8.864 43.686 6.104 10.199-1.83 19.4-5.838 24.863-12.203a.478.478 0 01.677-.052c.197.17.224.474.05.677zm-81.121 4h0c5.238 2.79 10.109 5.383 14.248 10.45a.479.479 0 01-.739.609c-4.069-4.98-8.863-7.52-14.013-10.25-1.818-.964-3.679-1.95-5.568-3.076-.39-.235-.295-.562-.266-.639A.464.464 0 011.25 3.4c.051-.007.153-.004.295.019.13.024.323.072.516.119h0c.208.05.416.101.545.124.36.059.719.113 1.078.167h0c.36.055.72.109 1.08.168 2.056.338 4.111.652 6.186.816l.205.016c7.67.618 13.957 1.125 20.164-3.91a.477.477 0 11.605.741C25.447 6.916 18.9 6.414 10.872 5.77c-2.101-.17-4.185-.485-6.262-.826a45.692 45.692 0 00-.74-.12h0-.004c1.12.622 2.227 1.212 3.318 1.793h0z" stroke="#fff"/></g></svg>
